SVG_Azure_All/Citrix Virtual Desktop Essentials.svg

<?xml version="1.0" encoding="UTF-8" standalone="no"?>
<!-- Generated by Microsoft Visio, SVG Export Citrix Virtual Desktop Essentials.svg Page-1 -->

<svg
   xmlns:dc="http://purl.org/dc/elements/1.1/"
   xmlns:cc="http://creativecommons.org/ns#"
   xmlns:rdf="http://www.w3.org/1999/02/22-rdf-syntax-ns#"
   xmlns:svg="http://www.w3.org/2000/svg"
   xmlns="http://www.w3.org/2000/svg"
   xmlns:sodipodi="http://sodipodi.sourceforge.net/DTD/sodipodi-0.dtd"
   xmlns:inkscape="http://www.inkscape.org/namespaces/inkscape"
   width="0.78735912in"
   height="0.78735912in"
   viewBox="0 0 56.689855 56.689997"
   xml:space="preserve"
   class="st2"
   version="1.1"
   id="svg24"
   sodipodi:docname="Citrix Virtual Desktop Essentials.svg"
   style="font-size:12px;overflow:visible;color-interpolation-filters:sRGB;fill:none;fill-rule:evenodd;stroke-linecap:square;stroke-miterlimit:3"
   inkscape:version="0.92.5 (2060ec1f9f, 2020-04-08)"><metadata
   id="metadata30"><rdf:RDF><cc:Work
       rdf:about=""><dc:format>image/svg+xml</dc:format><dc:type
         rdf:resource="http://purl.org/dc/dcmitype/StillImage" /></cc:Work></rdf:RDF></metadata><defs
   id="defs28" /><sodipodi:namedview
   pagecolor="#ffffff"
   bordercolor="#666666"
   borderopacity="1"
   objecttolerance="10"
   gridtolerance="10"
   guidetolerance="10"
   inkscape:pageopacity="0"
   inkscape:pageshadow="2"
   inkscape:window-width="640"
   inkscape:window-height="480"
   id="namedview26"
   showgrid="false"
   inkscape:zoom="1.8365233"
   inkscape:cx="37.795184"
   inkscape:cy="18.900351"
   inkscape:window-x="0"
   inkscape:window-y="0"
   inkscape:window-maximized="0"
   inkscape:current-layer="svg24" />
	<style
   type="text/css"
   id="style2">
	<![CDATA[
		.st1 {fill:#000000;stroke:none;stroke-linecap:butt;stroke-width:3.37748}
		.st2 {fill:none;fill-rule:evenodd;font-size:12px;overflow:visible;stroke-linecap:square;stroke-miterlimit:3}
	]]>
	</style>

	<g
   id="g22"
   transform="translate(-5.6693772,-5.6743)">
		<title
   id="title4">Page-1</title>
		<g
   id="group6745-1"
   transform="translate(5.66929,-34.0157)">
			<title
   id="title6">Citrix Virtual Desktop Essentials</title>
			<g
   id="group6746-2">
				<title
   id="title8">g8</title>
				<g
   id="shape6747-3">
					<title
   id="title10">path4</title>
					<path
   d="m 44.35,96.34 c -4.07,0 -7.91,-2.04 -10.22,-5.45 -1.3,-1.96 -3.45,-3.09 -5.76,-3.09 -2.35,0 -4.43,1.13 -5.76,3.09 -2.28,3.41 -6.08,5.49 -10.23,5.49 C 5.56,96.38 0.04,90.85 0.04,84.04 0.04,79.96 2.08,76.12 5.49,73.81 7.44,72.52 8.58,70.36 8.58,68.05 8.58,65.7 7.44,63.62 5.49,62.29 2.08,60.02 0,56.22 0,52.07 0,45.25 5.52,39.72 12.34,39.72 c 4.08,0 7.92,2.04 10.23,5.45 1.29,1.96 3.45,3.1 5.76,3.1 2.31,0 4.46,-1.18 5.76,-3.1 2.27,-3.41 6.07,-5.48 10.22,-5.48 6.82,0 12.34,5.52 12.34,12.34 0,4.07 -2.03,7.91 -5.44,10.22 -1.96,1.3 -3.1,3.45 -3.1,5.76 0,2.35 1.14,4.43 3.1,5.76 3.41,2.27 5.48,6.07 5.48,10.23 0,6.81 -5.52,12.34 -12.34,12.34 z M 28.37,84.47 c 3.4,0 6.58,1.68 8.5,4.54 1.72,2.51 4.5,4 7.48,4 4.98,0 9.01,-4.04 9.01,-9.01 0,-3.02 -1.49,-5.8 -3.99,-7.49 -2.86,-1.92 -4.59,-5.13 -4.59,-8.54 0,-3.41 1.69,-6.58 4.55,-8.5 2.5,-1.72 3.99,-4.5 3.99,-7.48 0,-4.98 -4.03,-9.01 -9.01,-9.01 -3.01,0 -5.8,1.48 -7.48,3.99 -1.92,2.86 -5.13,4.59 -8.5,4.59 -3.37,0 -6.59,-1.69 -8.51,-4.55 -1.72,-2.51 -4.5,-3.99 -7.48,-3.99 -4.97,0 -9.01,4.03 -9.01,9.01 0,3.01 1.49,5.8 4,7.48 2.86,1.92 4.58,5.13 4.58,8.5 0,3.41 -1.68,6.58 -4.54,8.5 -2.51,1.73 -4,4.51 -4,7.49 0,4.97 4.03,9.01 9.01,9.01 3.02,0 5.8,-1.49 7.48,-4 1.92,-2.86 5.1,-4.54 8.51,-4.54 z"
   class="st1"
   id="path12"
   inkscape:connector-curvature="0"
   style="fill:#000000;stroke:none;stroke-width:3.37748003;stroke-linecap:butt" />
				</g>
				<g
   id="shape6748-5"
   transform="translate(13.2819,-14.2222)">
					<title
   id="title15">path6</title>
					<path
   d="m 15.08,96.38 c -2.5,0 -5.01,-0.94 -6.93,-2.82 L 3.88,89.33 C 0.04,85.49 0,79.22 3.8,75.34 l 4.23,-4.27 c 3.84,-3.84 10.11,-3.88 13.99,-0.08 l 4.27,4.23 c 1.88,1.84 2.94,4.35 2.94,6.97 0,2.67 -1.02,5.14 -2.86,7.02 l -4.23,4.27 c -1.92,1.92 -4.47,2.9 -7.06,2.9 z M 15.04,71.42 c -1.68,0 -3.4,0.63 -4.7,1.92 l -4.19,4.31 c -2.55,2.59 -2.51,6.74 0.04,9.32 l 4.27,4.24 c 2.59,2.54 6.74,2.5 9.33,-0.04 l 4.23,-4.27 c 1.25,-1.26 1.92,-2.9 1.92,-4.67 0,-1.76 -0.71,-3.4 -1.96,-4.62 l -4.27,-4.23 c -1.3,-1.33 -2.98,-1.96 -4.67,-1.96 z"
   class="st1"
   id="path17"
   inkscape:connector-curvature="0"
   style="fill:#000000;stroke:none;stroke-width:3.37748003;stroke-linecap:butt" />
				</g>
			</g>
		</g>
	</g>
</svg>

<?xml version="1.0" encoding="UTF-8" standalone="no"?>
<!DOCTYPE svg PUBLIC "-//W3C//DTD SVG 1.1//EN" "http://www.w3.org/Graphics/SVG/1.1/DTD/svg11.dtd">
<!-- Generated by Microsoft Visio, SVG Export Citrix Virtual Desktop Essentials.svg Page-1 -->
<svg xmlns="http://www.w3.org/2000/svg" xmlns:xlink="http://www.w3.org/1999/xlink" xmlns:ev="http://www.w3.org/2001/xml-events"
		width="0.944882in" height="1.33858in" viewBox="0 0 68.0315 96.378" xml:space="preserve" color-interpolation-filters="sRGB"
		class="st2">
	<style type="text/css">
	<![CDATA[
		.st1 {fill:#000000;stroke:none;stroke-linecap:butt;stroke-width:3.37748}
		.st2 {fill:none;fill-rule:evenodd;font-size:12px;overflow:visible;stroke-linecap:square;stroke-miterlimit:3}
	]]>
	</style>

	<g>
		<title>Page-1</title>
		<g id="group6577-1" transform="translate(5.66929,-34.0157)">
			<title>Citrix Virtual Desktop Essentials</title>
			<g id="group6578-2">
				<title>g8</title>
				<g id="shape6579-3">
					<title>path4</title>
					<path d="M44.35 96.34 C40.28 96.34 36.44 94.3 34.13 90.89 C32.83 88.93 30.68 87.8 28.37 87.8 C26.02 87.8 23.94
								 88.93 22.61 90.89 C20.33 94.3 16.53 96.38 12.38 96.38 C5.56 96.38 0.04 90.85 0.04 84.04 C0.04 79.96
								 2.08 76.12 5.49 73.81 C7.44 72.52 8.58 70.36 8.58 68.05 C8.58 65.7 7.44 63.62 5.49 62.29 C2.08 60.02
								 0 56.22 0 52.07 C0 45.25 5.52 39.72 12.34 39.72 C16.42 39.72 20.26 41.76 22.57 45.17 C23.86 47.13
								 26.02 48.27 28.33 48.27 C30.64 48.27 32.79 47.09 34.09 45.17 C36.36 41.76 40.16 39.69 44.31 39.69
								 C51.13 39.69 56.65 45.21 56.65 52.03 C56.65 56.1 54.62 59.94 51.21 62.25 C49.25 63.55 48.11 65.7
								 48.11 68.01 C48.11 70.36 49.25 72.44 51.21 73.77 C54.62 76.04 56.69 79.84 56.69 84 C56.69 90.81
								 51.17 96.34 44.35 96.34 ZM28.37 84.47 C31.77 84.47 34.95 86.15 36.87 89.01 C38.59 91.52 41.37 93.01
								 44.35 93.01 C49.33 93.01 53.36 88.97 53.36 84 C53.36 80.98 51.87 78.2 49.37 76.51 C46.51 74.59 44.78
								 71.38 44.78 67.97 C44.78 64.56 46.47 61.39 49.33 59.47 C51.83 57.75 53.32 54.97 53.32 51.99 C53.32
								 47.01 49.29 42.98 44.31 42.98 C41.3 42.98 38.51 44.46 36.83 46.97 C34.91 49.83 31.7 51.56 28.33
								 51.56 C24.96 51.56 21.74 49.87 19.82 47.01 C18.1 44.5 15.32 43.02 12.34 43.02 C7.37 43.02 3.33 47.05
								 3.33 52.03 C3.33 55.04 4.82 57.83 7.33 59.51 C10.19 61.43 11.91 64.64 11.91 68.01 C11.91 71.42 10.23
								 74.59 7.37 76.51 C4.86 78.24 3.37 81.02 3.37 84 C3.37 88.97 7.4 93.01 12.38 93.01 C15.4 93.01 18.18
								 91.52 19.86 89.01 C21.78 86.15 24.96 84.47 28.37 84.47 Z" class="st1"/>
				</g>
				<g id="shape6580-5" transform="translate(13.2819,-14.2222)">
					<title>path6</title>
					<path d="M15.08 96.38 C12.58 96.38 10.07 95.44 8.15 93.56 L3.88 89.33 C0.04 85.49 0 79.22 3.8 75.34 L8.03 71.07
								 C11.87 67.23 18.14 67.19 22.02 70.99 L26.29 75.22 C28.17 77.06 29.23 79.57 29.23 82.19 C29.23 84.86
								 28.21 87.33 26.37 89.21 L22.14 93.48 C20.22 95.4 17.67 96.38 15.08 96.38 ZM15.04 71.42 C13.36 71.42
								 11.64 72.05 10.34 73.34 L6.15 77.65 C3.6 80.24 3.64 84.39 6.19 86.97 L10.46 91.21 C13.05 93.75 17.2
								 93.71 19.79 91.17 L24.02 86.9 C25.27 85.64 25.94 84 25.94 82.23 C25.94 80.47 25.23 78.83 23.98 77.61
								 L19.71 73.38 C18.41 72.05 16.73 71.42 15.04 71.42 Z" class="st1"/>
				</g>
			</g>
		</g>
	</g>
</svg>
